X: 010847
T: All Ireland [The]
S: "First Collection of Traditional Irish Music" (M.Mulvihill)
Z: B.Black
L: 1/8
M: 4/4
R: reel
K: G
B2 (3cBA Bded|(3Bcd Ad BE (3EDE|BAGA (3Bcd ef|\
gfed (3Bcd ed|
B2 (3cBA Bded|BdAd BE (3EDE|BAGA Bdef|gfed (3Bcd ef||
g3 e dB (3BAB|dg (3gfg Bdef|gfga bgaf|gfed (3Bcd ef|
gage dB (3BAB|dg (3gfg Bdef|gfga bgaf|gfed (3Bcd ef||
